res/icon.svg

<svg width="250" height="250" viewBox="0 0 250 250" fill="none" xmlns="http://www.w3.org/2000/svg">
<rect width="250" height="250" fill="white"/>
<g filter="url(#filter0_d)">
<path d="M89.4759 216.035C100.083 221.724 112.112 225 124.818 225C137.524 225 149.553 221.724 160.16 216.035V204.724H89.4759V216.035Z" fill="#D29B6E"/>
<path d="M192.977 128.686H190.453V72.9255H59.1832V128.686H56.6588C49.6878 128.686 44.0366 134.359 44.0366 141.358C44.0366 148.357 49.6878 154.031 56.6588 154.031H59.4382C62.0242 188.049 90.2734 214.86 124.818 214.86C159.362 214.86 187.612 188.049 190.198 154.031H192.977C199.948 154.031 205.599 148.357 205.599 141.358C205.599 134.36 199.949 128.686 192.977 128.686Z" fill="#F5B97D"/>
<path d="M170.258 83.0638V72.9255H59.1831V128.686H57.3792C50.7765 128.686 44.7601 133.455 44.1024 140.051C43.3455 147.636 49.2584 154.031 56.6593 154.031H59.4387C62.0247 188.049 90.2739 214.86 124.818 214.86C128.272 214.86 131.64 214.522 134.948 214.005C103.49 209.131 79.3786 181.91 79.3786 148.961V113.477C79.3786 102.279 88.4201 93.2003 99.5741 93.2003H160.16C165.737 93.2021 170.258 88.6635 170.258 83.0638Z" fill="#E3AA75"/>
<path d="M94.5248 144.334C91.7343 144.334 89.4759 142.064 89.4759 139.265V134.196C89.4759 131.396 91.7343 129.126 94.5248 129.126C97.3152 129.126 99.5736 131.396 99.5736 134.196V139.265C99.5736 142.065 97.3158 144.334 94.5248 144.334Z" fill="#5A4650"/>
<path d="M155.111 144.334C152.321 144.334 150.062 142.064 150.062 139.265V134.196C150.062 131.396 152.321 129.126 155.111 129.126C157.902 129.126 160.16 131.396 160.16 134.196V139.265C160.16 142.065 157.902 144.334 155.111 144.334Z" fill="#5A4650"/>
<path d="M99.5735 123.617H89.4758C86.6853 123.617 84.4269 121.347 84.4269 118.548C84.4269 115.749 86.6853 113.479 89.4758 113.479H99.5735C102.364 113.479 104.622 115.749 104.622 118.548C104.622 121.347 102.365 123.617 99.5735 123.617Z" fill="#6E5A64"/>
<path d="M160.16 123.617H150.062C147.272 123.617 145.013 121.347 145.013 118.548C145.013 115.749 147.272 113.479 150.062 113.479H160.16C162.95 113.479 165.209 115.749 165.209 118.548C165.209 121.347 162.95 123.617 160.16 123.617Z" fill="#6E5A64"/>
<path d="M104.305 162.118C102.715 162.118 102.086 163.516 102.351 165.09C103.991 174.85 113.425 182.334 124.818 182.334C136.211 182.334 145.645 174.85 147.285 165.09C147.549 163.516 145.816 162.118 144.226 162.118H104.305Z" fill="white"/>
<path d="M181.386 62.7879H68.2494C52.8337 62.7879 41.0176 76.5392 43.2779 91.8492L49.0855 131.191L60.4211 129.785C65.4805 129.157 69.281 124.842 69.281 119.723V93.2022C69.281 87.6025 73.8021 83.0639 79.3787 83.0639H170.258C175.834 83.0639 180.356 87.6025 180.356 93.2022V119.723C180.356 124.841 184.156 129.157 189.215 129.784L200.551 131.19L206.359 91.8486C208.618 76.5385 196.802 62.7879 181.386 62.7879Z" fill="#5A4650"/>
<path d="M192.823 28.5632C191.853 25.5445 188.361 24.079 185.601 25.6243C180.342 28.5713 170.564 32.3704 155.111 32.3704H104.622C85.1032 32.3704 69.2797 48.2567 69.2797 67.8544C69.2797 76.2533 76.061 83.0618 84.4264 83.0618H165.208C184.181 83.0618 203.154 60.6928 192.823 28.5632Z" fill="#64505A"/>
<path d="M99.3352 50.0439C99.4116 57.2315 105.752 62.7879 112.911 62.7879H181.386C185.019 62.7879 188.441 63.5744 191.537 64.9428C196.136 55.5694 197.493 43.0758 192.817 28.5461C191.85 25.5422 188.361 24.0798 185.616 25.6195C180.359 28.5678 170.578 32.3736 155.111 32.3736H104.622C104.307 32.5598 103.949 32.77 103.634 32.9561C100.904 37.9888 99.3334 43.7461 99.3334 49.8807C99.334 49.9345 99.3346 49.9889 99.3352 50.0439Z" fill="#6E5A64"/>
</g>
<defs>
<filter id="filter0_d" x="35" y="19" width="183.636" height="220" filterUnits="userSpaceOnUse" color-interpolation-filters="sRGB">
<feFlood flood-opacity="0" result="BackgroundImageFix"/>
<feColorMatrix in="SourceAlpha" type="matrix" values="0 0 0 0 0 0 0 0 0 0 0 0 0 0 0 0 0 0 127 0"/>
<feOffset dx="2" dy="4"/>
<feGaussianBlur stdDeviation="5"/>
<feColorMatrix type="matrix" values="0 0 0 0 0 0 0 0 0 0 0 0 0 0 0 0 0 0 0.4 0"/>
<feBlend mode="normal" in2="BackgroundImageFix" result="effect1_dropShadow"/>
<feBlend mode="normal" in="SourceGraphic" in2="effect1_dropShadow" result="shape"/>
</filter>
</defs>
</svg>

<svg xmlns="http://www.w3.org/2000/svg" width="250" height="250" fill="none"  xmlns:v="https://vecta.io/nano"><path fill="#fff" d="M0 0h250v250H0z"/><g filter="url(#A)"><path d="M89.476 216.035c10.607 5.689 22.636 8.965 35.342 8.965s24.735-3.276 35.342-8.965v-11.311H89.476v11.311z" fill="#d29b6e"/><path d="M192.977 128.686h-2.524V72.926H59.183v55.761h-2.524c-6.971 0-12.622 5.673-12.622 12.672s5.651 12.673 12.622 12.673h2.779c2.586 34.018 30.835 60.829 65.38 60.829s62.794-26.811 65.38-60.829h2.779c6.971 0 12.622-5.674 12.622-12.673s-5.65-12.672-12.622-12.672z" fill="#f5b97d"/><path d="M170.258 83.064V72.926H59.183v55.761h-1.804c-6.603 0-12.619 4.769-13.277 11.365-.757 7.585 5.156 13.98 12.557 13.98h2.779c2.586 34.018 30.835 60.829 65.379 60.829 3.454 0 6.822-.338 10.13-.855-31.458-4.874-55.569-32.095-55.569-65.044v-35.484c0-11.198 9.042-20.277 20.195-20.277h60.586c5.577.002 10.098-4.537 10.098-10.136z" fill="#e3aa75"/><path d="M94.525 144.334a5.06 5.06 0 0 1-5.049-5.069v-5.069a5.06 5.06 0 0 1 5.049-5.07 5.06 5.06 0 0 1 5.049 5.07v5.069c0 2.8-2.258 5.069-5.049 5.069z" fill="#5a4650"/><path d="M155.111 144.334a5.06 5.06 0 0 1-5.049-5.069v-5.069a5.06 5.06 0 0 1 5.049-5.07c2.791 0 5.049 2.27 5.049 5.07v5.069c0 2.8-2.258 5.069-5.049 5.069z" fill="#5a4650"/><path d="M99.574 123.617H89.476a5.06 5.06 0 1 1 0-10.138h10.098c2.791 0 5.049 2.27 5.049 5.069s-2.257 5.069-5.049 5.069z" fill="#6e5a64"/><path d="M160.16 123.617h-10.098a5.06 5.06 0 1 1 0-10.138h10.098a5.06 5.06 0 1 1 0 10.138z" fill="#6e5a64"/><path d="M104.305 162.118c-1.59 0-2.219 1.398-1.954 2.972 1.64 9.76 11.074 17.244 22.467 17.244s20.827-7.484 22.467-17.244c.264-1.574-1.469-2.972-3.059-2.972h-39.921z" fill="#fff"/><path d="M181.386 62.788H68.249c-15.416 0-27.232 13.751-24.971 29.061l5.808 39.342 11.336-1.406c5.059-.628 8.86-4.943 8.86-10.062V93.202c0-5.6 4.521-10.138 10.098-10.138h90.879c5.576 0 10.098 4.539 10.098 10.138v26.521c0 5.118 3.8 9.434 8.859 10.061l11.336 1.406 5.808-39.341c2.259-15.31-9.557-29.061-24.973-29.061z" fill="#5a4650"/><path d="M192.823 28.563c-.97-3.019-4.462-4.484-7.222-2.939-5.259 2.947-15.037 6.746-30.49 6.746h-50.489c-19.519 0-35.342 15.886-35.342 35.484 0 8.399 6.781 15.207 15.147 15.207h80.782c18.973 0 37.946-22.369 27.615-54.499z" fill="#64505a"/><path d="M99.335 50.044c.076 7.188 6.417 12.744 13.576 12.744h68.475c3.633 0 7.055.786 10.151 2.155 4.599-9.373 5.956-21.867 1.28-36.397-.967-3.004-4.456-4.466-7.201-2.927-5.257 2.948-15.038 6.754-30.505 6.754h-50.489l-.988.582a35.38 35.38 0 0 0-4.301 16.925l.002.163z" fill="#6e5a64"/></g><defs><filter id="A" x="35" y="19" width="183.636" height="220" filterUnits="userSpaceOnUse" color-interpolation-filters="sRGB"><feFlood flood-opacity="0" result="A"/><feColorMatrix in="SourceAlpha" values="0 0 0 0 0 0 0 0 0 0 0 0 0 0 0 0 0 0 127 0"/><feOffset dx="2" dy="4"/><feGaussianBlur stdDeviation="5"/><feColorMatrix values="0 0 0 0 0 0 0 0 0 0 0 0 0 0 0 0 0 0 0.4 0"/><feBlend in2="A"/><feBlend in="SourceGraphic"/></filter></defs></svg>
